X: 1523
T: Nişâburek Seyir
C: Şefik Gürmeriç
O: Turkey
F: http://compmusic.upf.edu/node/140
N: nisaburek--seyir--sofyan--1--sefik_gurmeric
N: makam= nisaburek
N: form= seyir
N: usul= sofyan = 4/4
M: 4/4
L: 1/16
K: C ^9/8f ^3/4c ^3/4g 
Q: 1/4=60
%%MIDI tuningsystem comma53
A8 e4 d4  | c2d2 c2d2 A8  | A4 =g4 =f4 e2f2  | \
w:   |   |   | 
e2d2 c2d2 e8  | e4 f2g2 a4 e4  | 
w:   |   | 
f2e2 d2f2 e8  | z4 ^d2e2 f2=g2 f2e2  | \
w:   |   | 
e2d2 c2B2 c8  | d6c2 d4 e2f2  | 
w:   |   | 
e2d2 d2c2 B8  | z4 c2d2 e2f2 e2d2  | \
w:   |   | 
c2Bc d2B2 A8  | B6d2 c4 B4  | 
w:   |   | 
A4 G2F2 E8  | c4 B2A2 G2A2 BcBA  | A16  | |


